X:20
T:Jenny Nettles. JBi.20
M:C
L:1/8
Q:1/4=160
S:James Biggins MS, Leeds, 1779.
R:.Scots Measure
O:England
A:Yorkshire
N:Key Sig as shown..
Z:vmp.Nick Barber&Chris Partington..
K:G
c2B2A2a2|e=fge d/c/B/A/ GB|c2B2A2a2|ge=fde2A2:|!
|:c>deA c>deA|BGdB B>cdB|c>deA cdea|ge=fde2A2:|

